X: 2332
T: PORTLAND HORNPIPE
C: Carl Volti
R: hornpipe, reel
B: Kerr's v.2 p.37 #332
Z: 2016 John Chambers <jc:trillian.mit.edu>
M: C
L: 1/8
K: F
|:\
(3AAA A2 (3AAA A2 | BABd c2f2 |\
afcA fcAF | EGc=B ed_BG |\
(3AAA A2 (3AAA A2 | BABd c2f2 |
afcA cBAG |1 F2[f2A2] [f2A2]z2 :|2 F2[f2A2] [f2A2] :|\
|: (ef) |\
(3ggg g2 (3ggg g2 | ag^fg =fedc |\
(3fff f2 (3fff f2 |
afcA fcAF |\
(3ggg g2 (3ggg g2 | ag^fg =fedc |\
fagf edc=B |1 c2e2 c2 :|2 cegf edc"_D.C."_B |]
